X: 20875
T: Jolly Seven, The
R: reel
M: 4/4
K: Adorian
|cAeA cAeA|cAeA dBGB|cAeA cdeg|afge dBGB|
cAeA cAeA|cAeA dBGB|cBAG ABce|aeed cAAB|
|:c2ec gcec|c2ge dBGB|c2ec gcef|gfge dBGB|
c2 ec gcec|c2 ge dBGB|cBAG ABce|aeed cAAB:|

